flaticon/productivity-and-development/menu.svg

<svg xmlns="http://www.w3.org/2000/svg" width="32" height="32" viewBox="0 0 24 24">
    <path d="M 16.5625 4.164062 L 16.5625 0 L 3.460938 4.175781 L 3.460938 24 L 20.539062 24 L 20.539062 4.164062 Z M 15.546875 1.386719 L 15.546875 4.164062 L 6.832031 4.164062 Z M 19.527344 22.988281 L 4.472656 22.988281 L 4.472656 5.179688 L 19.527344 5.179688 Z M 19.527344 22.988281"/>
    <path d="M6.644531 10.046875L7.390625 11.570312 7.761719 11.570312 8.515625 10.046875 8.515625 11.800781 9.136719 11.800781 9.136719 9.019531 8.300781 9.019531 7.578125 10.546875 6.863281 9.019531 6.023438 9.019531 6.023438 11.800781 6.644531 11.800781zM11.867188 11.25L10.441406 11.25 10.441406 10.671875 11.6875 10.671875 11.6875 10.144531 10.441406 10.144531 10.441406 9.570312 11.824219 9.570312 11.824219 9.019531 9.820312 9.019531 9.820312 11.800781 11.867188 11.800781zM13.042969 10.054688L14.367188 11.800781 14.988281 11.800781 14.988281 9.019531 14.367188 9.019531 14.367188 10.808594 13.003906 9.019531 12.421875 9.019531 12.421875 11.800781 13.042969 11.800781zM16.824219 11.828125C17.171875 11.828125 17.457031 11.71875 17.679688 11.503906 17.90625 11.285156 18.015625 10.976562 18.015625 10.574219L18.015625 9.019531 17.394531 9.019531 17.394531 10.554688C17.394531 10.777344 17.34375 10.953125 17.242188 11.082031 17.140625 11.210938 17 11.273438 16.824219 11.273438 16.652344 11.273438 16.511719 11.210938 16.410156 11.082031 16.304688 10.953125 16.253906 10.777344 16.253906 10.554688L16.253906 9.019531 15.632812 9.019531 15.632812 10.574219C15.632812 10.972656 15.746094 11.285156 15.96875 11.5 16.191406 11.71875 16.480469 11.828125 16.824219 11.828125zM6.328125 13.976562L17.652344 13.976562 17.652344 14.992188 6.328125 14.992188zM6.328125 16.980469L17.652344 16.980469 17.652344 17.992188 6.328125 17.992188zM6.328125 19.980469L17.652344 19.980469 17.652344 20.996094 6.328125 20.996094zM6.328125 19.980469"/>
</svg>

<svg xmlns="http://www.w3.org/2000/svg" width="32" height="32" viewBox="0 0 24 24">
    <path d="M16.563 4.164V0L3.46 4.176V24h17.078V4.164zm-1.016-2.777v2.777H6.832zm3.98 21.601H4.473V5.18h15.054zm0 0"/>
    <path d="M6.645 10.047l.746 1.523h.37l.755-1.523V11.8h.62V9.02h-.835l-.723 1.527-.715-1.527h-.84v2.78h.622zm0 0M11.867 11.25h-1.426v-.578h1.246v-.527h-1.246V9.57h1.383v-.55H9.82v2.78h2.047zm0 0M13.043 10.055l1.324 1.746h.621V9.02h-.62v1.789l-1.364-1.79h-.582v2.782h.621zm0 0M16.824 11.828c.348 0 .633-.11.856-.324.226-.219.336-.527.336-.93V9.02h-.621v1.535c0 .222-.051.398-.153.527a.503.503 0 0 1-.418.191.5.5 0 0 1-.414-.191c-.105-.129-.156-.305-.156-.527V9.02h-.621v1.554c0 .399.113.711.336.926.222.219.511.328.855.328zm0 0M6.328 13.977h11.324v1.015H6.328zm0 0M6.328 16.98h11.324v1.012H6.328zm0 0M6.328 19.98h11.324v1.016H6.328zm0 0"/>
</svg>
